X: 3
T: Willafjord
I: RJ	R-91	D	reel
M: C|
R: reel
K: D
z2 |: "D"A2FA zDFA |  "G"B2GB zDGB |\
[1,3  "D"A2FA zDFA | "A7"EFGA GFED :|\
[2,4 "A7"ABcd efge |  "D"f2d2 d2 :|
|: e2 |:\
     "D"f2df zAdf | "Em"geaf gfed |\
[1,3 "D"f2df zAdf | "A7"e2ce zAce :|\
[2,4 "A"ABcd efge |  "D"f2d2 d2   :|
% text 10/17/11

